packages/foundations/assets/icons/functional/images/transportation/taxi_32.svg

<svg width="32" height="32" viewBox="0 0 32 32" fill="none" xmlns="http://www.w3.org/2000/svg">
<g clip-path="url(#clip0_187_943)">
<path fill-rule="evenodd" clip-rule="evenodd" d="M22.4462 6.0001C23.763 6.0001 24.9181 6.85729 25.3082 8.1006L26.7881 13.999L29.025 14C29.5375 14 29.932 14.3561 29.9857 14.8497L29.992 15.966C29.992 16.4786 29.6341 16.9308 29.141 16.9928L27.9868 16.999C28.0107 17.2339 27.9885 17.818 27.9201 18.7512L27.5766 22.3243C27.5162 22.9227 27.3266 23.4634 27.0078 23.9463V26.7182C27.0078 27.2755 27.0078 28.9266 24.9249 28.997L23.2897 29.0001C21.1275 29.0001 21.0258 27.3594 21.0109 26.9172L21.0062 25.3086C20.5419 25.338 18.5061 25.4979 16.0071 25.4984C13.5081 25.4989 11.7175 25.3553 11.009 25.3105L11.0078 26.7182C11.0078 27.2755 11.0078 28.9266 8.92486 28.997L7.2897 29.0001C5.15185 29.0001 5.02583 27.3594 5.0109 26.9172L5.00776 24.0001C4.71154 23.5938 4.517 23.0948 4.43447 22.5207L4.07012 18.7811C3.99198 17.9271 3.96686 17.333 3.99476 16.9987L2.97506 17C2.42206 17 2.00806 16.518 2.00806 15.966V14.966C2.00806 14.413 2.42206 14 2.97506 14H5.22606L6.65888 8.27249C6.97824 6.99506 8.12438 6.0001 9.56931 6.0001H22.4462ZM7.00806 25.004L7.00776 27.0001H9.00776L9.00706 25.17L7.00806 25.004ZM25.0071 25.002L23.0071 25.168L23.0148 27.0001H25.0078L25.0071 25.002ZM7.57826 16C6.59212 16 6.24571 16.1917 6.10469 16.5785C6.00073 16.887 5.97052 17.3608 6.01406 18H8.00776C8.56004 18 9.00776 18.4477 9.00776 19C9.00776 19.5128 8.63287 20 8.00776 20H6.19606L6.40161 22.1317C6.45455 22.6789 6.618 22.9183 6.9295 22.9926C10.01 23.3292 13.0335 23.4978 16 23.4985C18.9665 23.499 21.9792 23.3296 25.0381 22.9901C25.3417 22.912 25.5029 22.7096 25.5688 22.2721L25.7911 20H24.0078C23.4555 20 23.0078 19.5523 23.0078 19C23.0078 18.4872 23.4163 18 24.0305 18H25.9711C25.9986 17.3118 25.9672 16.8437 25.8768 16.5954C25.7412 16.2231 25.4289 16.0271 24.5959 16.0026L7.57826 16ZM20.0078 19C20.56 19 21.0078 19.4477 21.0078 20C21.0078 20.5128 20.5975 21 20.0078 21H12.0078C11.4555 21 11.0078 20.5523 11.0078 20C11.0078 19.4872 11.4317 18.9934 12.0078 19.0001L20.0078 19ZM9.56931 8.0001C9.14868 8.0001 8.77753 8.26252 8.63287 8.64915L7.28806 14L24.7261 13.999L23.4163 8.75756C23.3143 8.34949 22.9697 8.05307 22.5596 8.0065L9.56931 8.0001ZM18.9922 3C19.5444 3 19.9922 3.44772 19.9922 4C19.9922 4.51284 19.5799 5 18.9922 5H12.9922C12.4399 5 11.9922 4.55228 11.9922 4C11.9922 3.48716 12.4325 3 12.9922 3H18.9922Z" fill="#1A1C1F"/>
</g>
<defs>
<clipPath id="clip0_187_943">
<rect width="32" height="32" fill="white"/>
</clipPath>
</defs>
</svg>

<svg xmlns="http://www.w3.org/2000/svg" width="32" height="32" fill="none"><g clip-path="url(#a)"><path fill="#1A1C1F" fill-rule="evenodd" d="M22.446 6a3 3 0 0 1 2.862 2.1L26.788 14l2.237.001a.94.94 0 0 1 .96.85l.007 1.116c0 .513-.358.965-.851 1.027l-1.154.006q.036.353-.067 1.752l-.343 3.573q-.09.899-.57 1.622v2.772c0 .558 0 2.209-2.082 2.279L23.29 29c-2.162 0-2.264-1.64-2.28-2.083l-.004-1.608c-.464.029-2.5.189-4.999.19-2.499 0-4.29-.144-4.998-.188l-.001 1.407c0 .558 0 2.209-2.083 2.279L7.29 29c-2.138 0-2.264-1.64-2.28-2.083L5.009 24c-.296-.406-.491-.905-.574-1.48l-.364-3.739Q3.953 17.5 3.995 17L2.975 17c-.553 0-.967-.482-.967-1.034v-1c0-.553.414-.966.967-.966h2.251L6.66 8.272A2.99 2.99 0 0 1 9.569 6zM7.008 25.004V27h2v-1.83zm18-.002-2 .166.007 1.832h1.993zM7.577 16c-.986 0-1.332.192-1.473.578q-.156.464-.09 1.422h1.993a1 1 0 0 1 1 1c0 .513-.375 1-1 1H6.196l.206 2.132c.053.547.216.786.527.86a84 84 0 0 0 9.071.506q4.45.002 9.038-.508c.304-.078.465-.28.53-.718L25.792 20h-1.783a1 1 0 1 1 .023-2h1.94q.041-1.032-.094-1.405c-.136-.372-.448-.568-1.281-.592zm12.43 3a1 1 0 0 1 0 2h-8a1 1 0 0 1-1-1c0-.513.424-1.007 1-1zM9.569 8a1 1 0 0 0-.936.65L7.288 14l17.438-.001-1.31-5.241a1 1 0 0 0-.856-.751zm9.423-5a1 1 0 0 1 0 2h-6a1 1 0 0 1-1-1c0-.513.44-1 1-1z" clip-rule="evenodd"/></g><defs><clipPath id="a"><path fill="#fff" d="M0 0h32v32H0z"/></clipPath></defs></svg>
